illustrations/assets/Email sent/il_axis_email_sent_dark.svg

<svg xmlns="http://www.w3.org/2000/svg" width="230" height="160" fill="none" viewBox="0 0 230 160">
  <path fill="#242424" d="M115.755 145.38c36.124 0 65.42-29.076 65.42-64.98 0-35.9042-29.296-64.98-65.42-64.98-36.1245 0-65.4205 29.0758-65.4205 64.98 0 35.904 29.296 64.98 65.4205 64.98Z"/>
  <path fill="#5C5C5C" d="M179.504 49.3418c2.494 0 4.516-2.0217 4.516-4.5156 0-2.4938-2.022-4.5155-4.516-4.5155s-4.515 2.0217-4.515 4.5155c0 2.4939 2.021 4.5156 4.515 4.5156ZM174.988 34.6936c1.703 0 3.084-1.3807 3.084-3.0838s-1.381-3.0838-3.084-3.0838-3.083 1.3807-3.083 3.0838 1.38 3.0838 3.083 3.0838ZM50.095 44.8263c1.7032 0 3.0838-1.3807 3.0838-3.0838s-1.3806-3.0838-3.0838-3.0838c-1.7031 0-3.0838 1.3807-3.0838 3.0838s1.3807 3.0838 3.0838 3.0838ZM43.1562 112.67c3.163 0 5.7271-2.564 5.7271-5.727 0-3.163-2.5641-5.727-5.7271-5.727-3.1629 0-5.727 2.564-5.727 5.727 0 3.163 2.5641 5.727 5.727 5.727Z"/>
  <path fill="url(#paint0_linear_3840_799)" d="M176.027 64.3125v60.2425c-.123 3.443-1.721 6.393-4.18 8.484-2.09 1.844-4.918 3.073-7.992 3.073H67.5899c-2.09 0-4.0572-.492-5.7784-1.475-.7376-.369-1.4753-.861-2.09-1.476-1.3524-1.106-2.5819-2.704-3.1966-4.426-.4918-1.229-.8606-2.581-.8606-3.934V64.3125s5.0407-4.3031 12.2944-10.2044C75.4584 47.8379 85.2939 39.7236 93.9 32.5928c4.9178-4.1801 4.426-3.6883 12.049-10.0815 5.778-4.9177 14.261-4.9177 20.039 0 1.476 1.2295 3.074 2.7048 4.549 3.9343 3.197 2.5818 6.639 5.5325 10.328 8.6061 7.745 6.3931 16.228 13.5239 22.867 19.0564 6.762 5.5325 11.68 9.7126 12.295 10.2044Z"/>
  <path fill="#0C0C0C" d="M163.732 53.9849v21.3923l-21.023 12.6633-6.27 3.8113-13.278 7.9914-6.27 3.8108-2.705 1.599-2.582-1.599-5.901-3.8108-12.6636-7.9914-5.9013-3.8113L67.7129 75.869V54.1078c7.4996-6.2701 17.3351-14.3845 25.9413-21.5153l47.0878 2.336c7.868 6.516 16.351 13.5239 22.99 19.0564Z" opacity=".2"/>
  <path fill="url(#paint1_linear_3840_799)" d="M159.552 37.0187v37.6211l-19.179 11.4338-5.656 3.4425-12.171 7.1308-5.655 3.4421-2.459 1.353-2.336-1.353-5.41-3.4421-11.5566-7.1308-5.4095-3.4425-17.704-11.065V37.0187c0-3.9342 3.1965-7.1307 7.2537-7.1307h73.0294c3.934-.123 7.253 3.1965 7.253 7.1307Z"/>
  <path fill="url(#paint2_linear_3840_799)" d="m56.156 64.0667 57.784 3.8112 61.226-3.8112-2.336 10.942s-57.538 29.9983-57.169 29.9983c.369 0-59.382-35.5308-59.382-35.5308l-.123-5.4095Z" opacity=".5"/>
  <path fill="#738DFF" d="M176.027 64.3125v60.2425c-.123 3.443-1.721 6.393-4.18 8.484-2.09 1.844-4.918 3.073-7.992 3.073H67.5899c-2.09 0-4.0572-.492-5.7784-1.475-.7376-.369-1.4753-.861-2.09-1.476-1.3524-1.106-2.5819-2.704-3.1966-4.426-.4918-1.229-.8606-2.581-.8606-3.934V64.3125l53.8497 33.6868 4.672 2.9507 1.598-.9836 1.475-.8606 58.768-34.7933Z"/>
  <path fill="url(#paint3_linear_3840_799)" d="M171.97 133.039c-2.09 1.844-4.918 3.073-7.992 3.073H67.5899c-2.09 0-4.0572-.492-5.7784-1.475-.7376-.369-1.4753-.861-2.09-1.476-1.3524-1.106-2.5819-2.704-3.1966-4.426-.4918-1.229-.8606-2.581-.8606-3.934V64.3125l6.2702 3.8113 53.8495 31.8426 1.475.8606.123.123 48.318 28.523 6.27 3.566Z"/>
  <path fill="url(#paint4_linear_3840_799)" d="M117.259 98.9829v4.1801l-55.4475 31.474c-.7377-.369-1.4753-.861-2.09-1.476-1.3524-1.106-2.5819-2.704-3.1966-4.426l53.9721-31.9651 4.672 2.9507.615.2459 1.475-.9836Z" opacity=".4"/>
  <path stroke="#777" stroke-miterlimit="10" stroke-width=".855" d="m55.6643 64.3125 60.1197 35.6539"/>
  <path fill="url(#paint5_linear_3840_799)" d="M176.027 64.3125v60.2425c-.123 3.443-1.721 6.393-4.18 8.484-2.09 1.844-4.918 3.073-7.992 3.073H67.5899c-2.0901 0-4.0572-.492-5.7784-1.475-.7377-.369-1.4753-.861-2.0901-1.476l6.1473-3.688 48.3173-28.523 1.598-.9836 1.475-.8606 52.375-31.105 6.393-3.6883Z"/>
  <path stroke="#777" stroke-miterlimit="10" stroke-width=".855" d="m176.027 64.3125-58.768 34.6704-1.475.9835-1.598.9836-54.4646 32.089"/>
  <path fill="#707070" d="M161.519 106.482h-31.965c-.738 0-1.353-.614-1.353-1.352 0-.738.615-1.352 1.353-1.352h31.965c.738 0 1.353.614 1.353 1.352.123.738-.492 1.352-1.353 1.352ZM161.519 115.703h-31.965c-.738 0-1.353-.614-1.353-1.352 0-.738.615-1.352 1.353-1.352h31.965c.738 0 1.353.614 1.353 1.352.123.738-.492 1.352-1.353 1.352Z"/>
  <path fill="#526DFF" d="m168.158 134.883 3.935-1.968-.246.246h-.123l-3.566 1.722Z"/>
  <path fill="#656565" d="M112.707 76.8926c-.953 0-1.849-.3502-2.578-1.109L97.7414 62.8845c-1.4013-1.4592-1.4013-3.9106 0-5.3698 1.4013-1.4591 3.7556-1.4591 5.1566 0l9.809 10.2143 23.094-23.9889c1.401-1.4591 3.755-1.4591 5.156 0 1.402 1.4592 1.402 3.9106 0 5.3698l-25.671 26.6737c-.673.7588-1.626 1.109-2.579 1.109Z"/>
  <defs>
    <linearGradient id="paint0_linear_3840_799" x1="115.846" x2="115.846" y1="18.823" y2="136.112" gradientUnits="userSpaceOnUse">
      <stop stop-color="#434343"/>
      <stop offset="1" stop-color="#333"/>
    </linearGradient>
    <linearGradient id="paint1_linear_3840_799" x1="115.784" x2="115.784" y1="29.8846" y2="101.442" gradientUnits="userSpaceOnUse">
      <stop stop-color="#FAFAFA"/>
      <stop offset=".8281" stop-color="#F5F2EC"/>
    </linearGradient>
    <linearGradient id="paint2_linear_3840_799" x1="115.608" x2="115.608" y1="117.987" y2="66.8255" gradientUnits="userSpaceOnUse">
      <stop stop-color="#3B3B3B"/>
      <stop offset="1" stop-color="#3A3A3A" stop-opacity="0"/>
    </linearGradient>
    <linearGradient id="paint3_linear_3840_799" x1="113.779" x2="113.779" y1="62.6517" y2="136.886" gradientUnits="userSpaceOnUse">
      <stop stop-color="#5C5C5C"/>
      <stop offset=".9964" stop-color="#4D4D4D"/>
    </linearGradient>
    <linearGradient id="paint4_linear_3840_799" x1="90.3603" x2="85.646" y1="119.171" y2="112.271" gradientUnits="userSpaceOnUse">
      <stop stop-color="#2A2E37"/>
      <stop offset="1" stop-color="#2A2E37" stop-opacity="0"/>
    </linearGradient>
    <linearGradient id="paint5_linear_3840_799" x1="117.836" x2="117.836" y1="62.6517" y2="136.886" gradientUnits="userSpaceOnUse">
      <stop stop-color="#5C5C5C"/>
      <stop offset=".9964" stop-color="#4D4D4D"/>
    </linearGradient>
  </defs>
</svg>

<svg width="230" height="160" viewBox="0 0 230 160" fill="none" xmlns="http://www.w3.org/2000/svg">
<path d="M115.755 145.38C151.879 145.38 181.175 116.304 181.175 80.3999C181.175 44.4957 151.879 15.4199 115.755 15.4199C79.6305 15.4199 50.3345 44.4957 50.3345 80.3999C50.3345 116.304 79.6305 145.38 115.755 145.38Z" fill="#242424"/>
<path d="M179.504 49.3417C181.998 49.3417 184.02 47.32 184.02 44.8261C184.02 42.3322 181.998 40.3105 179.504 40.3105C177.01 40.3105 174.989 42.3322 174.989 44.8261C174.989 47.32 177.01 49.3417 179.504 49.3417Z" fill="#5C5C5C"/>
<path d="M174.988 34.6935C176.691 34.6935 178.072 33.3128 178.072 31.6097C178.072 29.9065 176.691 28.5259 174.988 28.5259C173.285 28.5259 171.905 29.9065 171.905 31.6097C171.905 33.3128 173.285 34.6935 174.988 34.6935Z" fill="#5C5C5C"/>
<path d="M50.095 44.8263C51.7982 44.8263 53.1788 43.4456 53.1788 41.7425C53.1788 40.0394 51.7982 38.6587 50.095 38.6587C48.3919 38.6587 47.0112 40.0394 47.0112 41.7425C47.0112 43.4456 48.3919 44.8263 50.095 44.8263Z" fill="#5C5C5C"/>
<path d="M43.1562 112.669C46.3192 112.669 48.8833 110.105 48.8833 106.942C48.8833 103.779 46.3192 101.215 43.1562 101.215C39.9933 101.215 37.4292 103.779 37.4292 106.942C37.4292 110.105 39.9933 112.669 43.1562 112.669Z" fill="#5C5C5C"/>
<path d="M176.027 64.3125V123.941C176.027 124.187 176.027 124.309 176.027 124.555C175.904 127.998 174.306 130.948 171.847 133.039C169.757 134.883 166.929 136.112 163.855 136.112H67.5899C65.4999 136.112 63.5327 135.62 61.8115 134.637C61.0739 134.268 60.3362 133.776 59.7215 133.161C58.3691 132.055 57.1396 130.457 56.5249 128.735C56.0331 127.506 55.6643 126.154 55.6643 124.801V64.3125C55.6643 64.3125 60.705 60.0094 67.9587 54.1081C75.4584 47.8379 85.2939 39.7236 93.9 32.5928C98.8178 28.4127 98.326 28.9045 105.949 22.5113C111.727 17.5936 120.21 17.5936 125.988 22.5113C127.464 23.7408 129.062 25.2161 130.537 26.4456C133.734 29.0274 137.176 31.9781 140.865 35.0517C148.61 41.4448 157.093 48.5756 163.732 54.1081C170.494 59.6406 175.412 63.8207 176.027 64.3125Z" fill="url(#paint0_linear_3840_799)"/>
<path opacity="0.2" d="M163.732 53.9849V75.3772L142.709 88.0405L136.439 91.8518L123.161 99.8432L116.891 103.654L114.186 105.253L111.604 103.654L105.703 99.8432L93.0394 91.8518L87.1381 88.0405L67.7129 75.869V54.1078C75.2125 47.8377 85.048 39.7233 93.6542 32.5925L140.742 34.9285C148.61 41.4445 157.093 48.4524 163.732 53.9849Z" fill="#0C0C0C"/>
<path d="M159.552 37.0186V74.6397L140.373 86.0735L134.717 89.516L122.546 96.6467L116.891 100.089L114.432 101.442L112.096 100.089L106.686 96.6467L95.1294 89.516L89.7199 86.0735L72.0159 75.0085V37.0186C72.0159 33.0844 75.2124 29.8878 79.2696 29.8878H152.299C156.233 29.7649 159.552 33.0844 159.552 37.0186Z" fill="url(#paint1_linear_3840_799)"/>
<path opacity="0.5" d="M56.156 64.0667L113.94 67.8779L175.166 64.0667L172.83 75.0087C172.83 75.0087 115.292 105.007 115.661 105.007C116.03 105.007 56.279 69.4762 56.279 69.4762L56.156 64.0667Z" fill="url(#paint2_linear_3840_799)"/>
<path d="M176.027 64.3125V124.555C175.904 127.998 174.306 130.948 171.847 133.039C169.757 134.883 166.929 136.112 163.855 136.112H67.5899C65.4999 136.112 63.5327 135.62 61.8115 134.637C61.0739 134.268 60.3362 133.776 59.7215 133.161C58.3691 132.055 57.1396 130.457 56.5249 128.735C56.0331 127.506 55.6643 126.154 55.6643 124.801V124.678V64.3125L109.514 97.9993L114.186 100.95L115.784 99.9664L117.259 99.1058L176.027 64.3125Z" fill="#738DFF"/>
<path d="M171.97 133.039C169.88 134.883 167.052 136.112 163.978 136.112H67.5899C65.4999 136.112 63.5327 135.62 61.8115 134.637C61.0739 134.268 60.3362 133.776 59.7215 133.161C58.3691 132.055 57.1396 130.457 56.5249 128.735C56.0331 127.506 55.6643 126.154 55.6643 124.801V124.678V64.3125L61.9345 68.1238L115.784 99.9664L117.259 100.827L117.382 100.95L165.7 129.473L171.97 133.039Z" fill="url(#paint3_linear_3840_799)"/>
<path opacity="0.4" d="M117.259 98.983V103.163L61.8115 134.637C61.0738 134.268 60.3362 133.776 59.7215 133.162C58.3691 132.055 57.1396 130.457 56.5249 128.736L110.497 96.77L115.169 99.7207L115.784 99.9666L117.259 98.983Z" fill="url(#paint4_linear_3840_799)"/>
<path d="M55.6643 64.3125L115.784 99.9664" stroke="#777777" stroke-width="0.854999" stroke-miterlimit="10"/>
<path d="M176.027 64.3125V124.555C175.904 127.998 174.306 130.948 171.847 133.039C169.757 134.883 166.929 136.112 163.855 136.112H67.5899C65.4998 136.112 63.5327 135.62 61.8115 134.637C61.0738 134.268 60.3362 133.776 59.7214 133.161L65.8687 129.473L114.186 100.95L115.784 99.9664L117.259 99.1058L169.634 68.0008L176.027 64.3125Z" fill="url(#paint5_linear_3840_799)"/>
<path d="M176.027 64.3125L117.259 98.9829L115.784 99.9664L114.186 100.95L59.7214 133.039" stroke="#777777" stroke-width="0.854999" stroke-miterlimit="10"/>
<path d="M161.519 106.482H129.554C128.816 106.482 128.201 105.868 128.201 105.13C128.201 104.392 128.816 103.778 129.554 103.778H161.519C162.257 103.778 162.872 104.392 162.872 105.13C162.995 105.868 162.38 106.482 161.519 106.482Z" fill="#707070"/>
<path d="M161.519 115.703H129.554C128.816 115.703 128.201 115.089 128.201 114.351C128.201 113.613 128.816 112.999 129.554 112.999H161.519C162.257 112.999 162.872 113.613 162.872 114.351C162.995 115.089 162.38 115.703 161.519 115.703Z" fill="#707070"/>
<path d="M168.158 134.883L172.093 132.916C171.97 133.038 171.97 133.038 171.847 133.161C171.847 133.161 171.847 133.161 171.724 133.161L168.158 134.883Z" fill="#526DFF"/>
<path d="M112.707 76.8926C111.754 76.8926 110.858 76.5424 110.129 75.7836L97.7414 62.8845C96.3401 61.4253 96.3401 58.9739 97.7414 57.5147C99.1427 56.0556 101.497 56.0556 102.898 57.5147L112.707 67.729L135.801 43.7401C137.202 42.281 139.556 42.281 140.957 43.7401C142.359 45.1993 142.359 47.6507 140.957 49.1099L115.286 75.7836C114.613 76.5424 113.66 76.8926 112.707 76.8926Z" fill="#656565"/>
<defs>
<linearGradient id="paint0_linear_3840_799" x1="115.846" y1="18.823" x2="115.846" y2="136.112" gradientUnits="userSpaceOnUse">
<stop stop-color="#434343"/>
<stop offset="1" stop-color="#333333"/>
</linearGradient>
<linearGradient id="paint1_linear_3840_799" x1="115.784" y1="29.8845" x2="115.784" y2="101.442" gradientUnits="userSpaceOnUse">
<stop stop-color="#FAFAFA"/>
<stop offset="0.828125" stop-color="#F5F2EC"/>
</linearGradient>
<linearGradient id="paint2_linear_3840_799" x1="115.608" y1="117.987" x2="115.608" y2="66.8255" gradientUnits="userSpaceOnUse">
<stop stop-color="#3B3B3B"/>
<stop offset="1" stop-color="#3A3A3A" stop-opacity="0"/>
</linearGradient>
<linearGradient id="paint3_linear_3840_799" x1="113.779" y1="62.6517" x2="113.779" y2="136.886" gradientUnits="userSpaceOnUse">
<stop stop-color="#5C5C5C"/>
<stop offset="0.9964" stop-color="#4D4D4D"/>
</linearGradient>
<linearGradient id="paint4_linear_3840_799" x1="90.3603" y1="119.171" x2="85.646" y2="112.271" gradientUnits="userSpaceOnUse">
<stop stop-color="#2A2E37"/>
<stop offset="1" stop-color="#2A2E37" stop-opacity="0"/>
</linearGradient>
<linearGradient id="paint5_linear_3840_799" x1="117.836" y1="62.6517" x2="117.836" y2="136.886" gradientUnits="userSpaceOnUse">
<stop stop-color="#5C5C5C"/>
<stop offset="0.9964" stop-color="#4D4D4D"/>
</linearGradient>
</defs>
</svg>
